X:1
T:Il Valzer di Mezzanotte -- Second harmony
K:Am treble middle=B
K:Am
M:3/4
R:Waltz
L:1/8
B, CDE^G|:"Am"A6|"Dm"B6|"Am"AF E4-|-E2 AB^GF |"E7"E6|^G6|"Am"ED C3 B,|
"Am/E"A,B, CDE^G|"Am"A6|"A7"^c6|"Dm"AGF4|-F2A^GAF|"Am".E2C4|"E7".E2B,4|"Am"A,3A,A,2|1 A,:|2"Am" +fine+A,zz4|]
[K:A]"P lyrical"y/"A"A6|d2  e3 f|"E7"B6|"Bm7"e4dc|"E7"B4 (3BcB|A4 G2|"A"A2 E2 G2|A2 B2 G2|"F#"F3^EF=G|F2E2F2|
"Bm"F3^EF=G|"D"F2A2F2|"A"E2z2E2|"E"E2z2E2|"A"A,3A,A,2|1A,:|2"Am"A,B, =CDE^G||
[K:Am]"Am"A4F2|"Dm"^G4E2|"Am"E2CD|"E7"E6|"Am"(A2B2)A2|"Dm"(^GA)G2|"Am"(E2D2)C2|"E7"E||
